ui/StatusQ/src/assets/img/icons/view.svg

<svg fill="none" height="14" viewBox="0 0 20 14" width="20" xmlns="http://www.w3.org/2000/svg"><g clip-rule="evenodd" fill="#fff" fill-rule="evenodd"><path d="m14 7c0 2.20914-1.7909 4-4 4-2.20914 0-4-1.79086-4-4s1.79086-4 4-4c2.2091 0 4 1.79086 4 4zm-1.5 0c0 1.38071-1.1193 2.5-2.5 2.5-1.38071 0-2.5-1.11929-2.5-2.5s1.11929-2.5 2.5-2.5c1.3807 0 2.5 1.11929 2.5 2.5z"/><path d="m.30102 7.48327c1.03483 1.5838 4.66222 6.51673 9.69898 6.51673 5.0368 0 8.6642-4.93293 9.6991-6.51673.1936-.29642.1936-.67012 0-.96654-1.0349-1.5838-4.6623-6.51672927-9.6991-6.51673-5.03676.00000022-8.66415 4.93293-9.69898 6.51673-.193678.29642-.193678.67012 0 .96654zm9.69898 5.01673c-2.0172 0-3.84676-.9912-5.37269-2.3022-.80303-.68992-1.48262-1.43534-2.0153-2.09264-.5236-.64611-.5236-1.5642 0-2.21031.53268-.6573 1.21227-1.40273 2.0153-2.09266 1.52592-1.31104 3.35549-2.30219 5.37269-2.30219 2.0173 0 3.8469.99116 5.3728 2.30219.803.68993 1.4826 1.43535 2.0153 2.09265.5236.64611.5236 1.5642 0 2.21032-.5327.65729-1.2123 1.40272-2.0153 2.09264-1.5259 1.311-3.3555 2.3022-5.3728 2.3022z"/></g></svg>

<svg width="20" height="14" viewBox="0 0 20 14" fill="none" xmlns="http://www.w3.org/2000/svg">
<path fill-rule="evenodd" clip-rule="evenodd" d="M14 7C14 9.20914 12.2091 11 10 11C7.79086 11 6 9.20914 6 7C6 4.79086 7.79086 3 10 3C12.2091 3 14 4.79086 14 7ZM12.5 7C12.5 8.38071 11.3807 9.5 10 9.5C8.61929 9.5 7.5 8.38071 7.5 7C7.5 5.61929 8.61929 4.5 10 4.5C11.3807 4.5 12.5 5.61929 12.5 7Z" fill="white"/>
<path fill-rule="evenodd" clip-rule="evenodd" d="M0.30102 7.48327C1.33585 9.06707 4.96324 14 10 14C15.0368 14 18.6642 9.06707 19.6991 7.48327C19.8927 7.18685 19.8927 6.81315 19.6991 6.51673C18.6642 4.93293 15.0368 7.33509e-07 10 0C4.96324 2.20166e-07 1.33585 4.93293 0.30102 6.51673C0.107342 6.81315 0.107342 7.18685 0.30102 7.48327ZM10 12.5C7.9828 12.5 6.15324 11.5088 4.62731 10.1978C3.82428 9.50788 3.14469 8.76246 2.61201 8.10516C2.08841 7.45905 2.08841 6.54096 2.61201 5.89485C3.14469 5.23755 3.82428 4.49212 4.62731 3.80219C6.15323 2.49115 7.9828 1.5 10 1.5C12.0173 1.5 13.8469 2.49116 15.3728 3.80219C16.1758 4.49212 16.8554 5.23754 17.3881 5.89484C17.9117 6.54095 17.9117 7.45904 17.3881 8.10516C16.8554 8.76245 16.1758 9.50788 15.3728 10.1978C13.8469 11.5088 12.0173 12.5 10 12.5Z" fill="white"/>
</svg>
